!!!!SEGMENT: pl-lzu--m-15111--001-028_noskowski-zygmunt--spiewnik-dla-dzieci-op-34-28-wianki.krn
!!!cenid: 18xx:4725
!!!COM: Noskowski, Zygmunt
!!!COM-rismID: pe106604
!!!CDT: 1846/05/02-1909/07/23
!!!CNT: Polish
!!!GTL: Śpiewnik dla dzieci, op. 34
!!!OTL: 28. Wianki
!!!OMV: 028
!!!PDT: 1890
!!!AGN: Secular; Song; Children
!!!YEC: Copyright 2022 Narodowy Instytut Fryderyka Chopina (https://polishscores.org)
!!!YEM: License CC-BY-4.0 (https://creativecommons.org/licenses/by/4.0)
!!!SMS-siglum: PL-LŹu
!!!SMS-shelfmark: M 15111
!!!SMS-variant:
!!!SMS-altvar:
!!!SMS-shelfwork: 001-028 G
!!!NIFC-rismSourceID: 1001234040
!!!NIFC-rismChildID: 1001234040
!!!NIFC-islandoraID: pl-lzu:5455
!!!URL-pdf-islandora: https://repozytorium.nifc.pl/islandora/object/pl-lzu%3A5455/datastream/PDF/view
!!!URL-scan: https://polish.musicsources.pl/pl/lokalizacje/galeria/druki-muzyczne/23228/36 @EN{Scan on Polish Music Sources Website} @PL{Skany w portalu Dziedzictwo Muzyki Polskiej w otwartym dostępie}
!!!IIIF:
!!!ONB-nifc:
!!!AIN: 1 piano
!!!key: G
!!!OMD: Non troppo allegro.
**kern	**kern	**dynam	**kern	**text	**text	**text	**dynam
*part2	*part2	*part2	*part1	*part1	*part1	*part1	*part1
*staff3	*staff2	*staff2,3	*staff1	*staff1	*staff1	*staff1	*staff1
*I"[Piano]	*I"[Piano]	*	*I"[Voice]	*	*	*	*
*I'pf	*I'pf	*	*	*	*	*	*
*Ipiano	*Ipiano	*	*	*	*	*	*
*ICklav	*ICklav	*	*	*	*	*	*
*IGacomp	*IGacomp	*	*	*	*	*	*
*>[A,A,A]	*>[A,A,A]	*>[A,A,A]	*>[A,A,A]	*>[A,A,A]	*>[A,A,A]	*>[A,A,A]	*>[A,A,A]
*>A	*>A	*>A	*>A	*>A	*>A	*>A	*>A
*clefF4	*clefG2	*	*clefG2	*	*	*	*
*k[f#]	*k[f#]	*	*k[f#]	*	*	*	*
*G:	*G:	*	*G:	*	*	*	*
*M3/4	*M3/4	*	*M3/4	*	*	*	*
=1	=1	=1	=1	=1	=1	=1	=1
!	!LO:TX:a:i:t=Niezbyt prędko.	!	!	!	!	!	!
4G\ 4B 4d	8.dd\L	mf	2.r	.	.	.	.
.	16b\Jk	.	.	.	.	.	.
4G\ 4A 4c 4d	4a/	.	.	.	.	.	.
4G\ 4A 4c 4d	(8cc/L	.	.	.	.	.	.
.	8a/J)	.	.	.	.	.	.
=2	=2	=2	=2	=2	=2	=2	=2
4G\ 4B 4d	(12g/L	.	2.r	.	.	.	.
.	12f#/	.	.	.	.	.	.
.	12e/J	.	.	.	.	.	.
4G\ 4A 4c	4d/)	.	.	.	.	.	.
4GG/	8e/L	sfz	.	.	.	.	.
.	8f#/J	.	.	.	.	.	.
=3	=3	=3	=3	=3	=3	=3	=3
4G\ 4B 4d	8.g/L	.	2.r	.	.	.	.
.	16a/Jk	.	.	.	.	.	.
4G\ 4B 4d	4b\	.	.	.	.	.	.
4G\ 4A 4c 4d	(8cc\L	.	.	.	.	.	.
.	8a\J)	.	.	.	.	.	.
=4	=4	=4	=4	=4	=4	=4	=4
4G\ 4B 4d	(12g/L	.	2.r	.	.	.	.
.	12f#/	.	.	.	.	.	.
.	12e/J	.	.	.	.	.	.
4G\ 4A 4c	4d/)	.	.	.	.	.	.
4GG/	(8e/L	sfz	.	.	.	.	.
.	8f#/J)	.	.	.	.	.	.
!!LO:LB:g=original
=5	=5	=5	=5	=5	=5	=5	=5
4G\ 4B 4d	8.g/L	.	2.r	.	.	.	.
.	16b/Jk	.	.	.	.	.	.
4G\ 4B 4d	2dd\	.	.	.	.	.	.
4Fn\ 4B 4d	.	.	.	.	.	.	.
=6	=6	=6	=6	=6	=6	=6	=6
4E\ 4G 4c	8.cc\L	.	2.r	.	.	.	.
.	16ee\Jk	.	.	.	.	.	.
4F#X\ 4A 4d	4dd\	.	.	.	.	.	.
4G\ 4B 4d	(8cc\L	.	.	.	.	.	.
.	8b\J)	.	.	.	.	.	.
=7	=7	=7	=7	=7	=7	=7	=7
4E-X\ 4A 4c	(12a\L	.	2.r	.	.	.	.
.	12b\	.	.	.	.	.	.
.	12cc\J	.	.	.	.	.	.
4D\ 4B 4d	4b\)	.	.	.	.	.	.
4r	(8dd\L	.	.	.	.	.	.
.	8b\J)	.	.	.	.	.	.
=8	=8	=8	=8	=8	=8	=8	=8
4D\ 4F# 4c	8.a/L	.	2.r	.	.	.	.
.	16f#/Jk	.	.	.	.	.	.
4G\ 4B	4g/	.	.	.	.	.	.
4ryy	4r	.	.	.	.	.	.
!!LO:PB:g=original
=9	=9	=9	=9	=9	=9	=9	=9
*	*	*	*	*v:1	*v:2	*v:3	*
4GG/ 4D	8.B/L 8.g	p	8.g/	A	Na	Płyń-	.
.	16b/Jk	.	16b/	ta	wy-	-że	.
4GG/ 4D	4c/ 4a	.	4a/	mo-	-so-	mój	.
4GG/ 4D	4c/ 4f#	.	4f#/	-dra	-kim	wia-	.
=10	=10	=10	=10	=10	=10	=10	=10
4GG/ 4D	(8B/L 8g	.	(8g/L	rze-	brze-	-ne-	.
.	8dd/J)	.	8dd/J)	.	.	.	.
4GG/ 4G	2d/ 2b	.	2b/	-ka	-gu	-czku,	.
4GG/ 4D	.	.	.	.	.	.	.
=11	=11	=11	=11	=11	=11	=11	=11
4GG/ 4D	8.c/L 8.a	.	8.a/	O-	Pa-	Do	.
.	16cc/Jk	.	16cc\	-gnia-	-nie-	brze-	.
4GG/ 4D	4c/ 4a	.	4a/	-mi	-necz-	-gu	.
4GG/ 4D	4c/ 4f#	.	4f#/	się	-ka	dru-	.
=12	=12	=12	=12	=12	=12	=12	=12
4GG/ 4D	(8B/L 8g	.	(8g/L	pa-	sta-	-gie-	.
.	8e/J)	.	8e/J)	.	.	.	.
!	!LO:N:vis=2	!	!LO:N:vis=2	!	!	!	!
4GG/ 4G	4B/ 4d	.	4d/	-li,	-ła,	-go,	.
4GG/ 4D	4r	.	4r	.	.	.	.
!!LO:LB:g=original
=13	=13	=13	=13	=13	=13	=13	=13
=9	=9	=9	=9	=9	=9	=9	=9
*	*	*	*	*v:1	*v:2	*v:3	*
4GG/ 4D	8.B/L 8.g	.	8.g/	We-	Mo-	Py-	.
.	16b/Jk	.	16b/	-so-	-dre-	-taj	.
4GG/ 4D	4c/ 4a	.	4a/	-ła	-mi	się	.
4GG/ 4D	4c/ 4f#	.	4f#/	dru-	ocz-	tam	.
=14	=14	=14	=14	=14	=14	=14	=14
4GG/ 4D	(8B/L 8g	.	(8g/L	-ży-	-ka-	lu-	.
.	8dd/J)	.	8dd/J)	.	.	.	.
4GG/ 4G	2d/ 2b	.	2b\	-na	-mi	-dzi	.
4GG/ 4D	.	.	.	.	.	.	.
=15	=15	=15	=15	=15	=15	=15	=15
4GG/ 4F#	8.c/L 8.a	.	8.a/	Pły-	Na	O	.
.	16b/Jk	.	16b/	-nie	wia-	bra-	.
4GG/ 4F#	4c/ 4cc	.	4cc\	po	-nek	-ci-	.
4GG/ 4D	4c/ 4a	.	4a/	jej	pa-	-szka	.
=16	=16	=16	=16	=16	=16	=16	=16
4GG/ 4D	(8c/L 8f#	.	(8f#/L	fa-	-trza-	me-	.
.	8a/J)	.	8a/J)	.	.	.	.
!	!LO:N:vis=2	!	!LO:N:vis=2	!	!	!	!
4GG/ 4D	4B/ 4g	.	4g/	-li,	-ła.	-go.	.
4GG/ 4D	4r	.	4r	.	.	.	.
!!LO:LB:g=original
=17	=17	=17	=17	=17	=17	=17	=17
=9	=9	=9	=9	=9	=9	=9	=9
*	*	*	*	*v:1	*v:2	*v:3	*
*^	*	*	*	*	*	*	*
4r	2.C\	(4.f#/	.	4.f#/	We-	Płyń-	Mój	.
4D/ 4F# 4A	.	.	.	.	.	.	.	.
.	.	8a/L	.	8a/	-so-	-że	bra-	.
4D/ 4F# 4A	.	8e/	.	8e/	-ła	mój	-ci-	.
.	.	8f#/J)	.	8f#/	dru-	wia-	-szek	.
=18	=18	=18	=18	=18	=18	=18	=18	=18
*	*	*	*	*^	*	*	*	*
4r	2.BB\	(8g/L	.	(8g/L	2ryy	-ży-	-necz-	mi-	.
.	.	8a/J	.	8a/J)	.	.	.	.	.
4D/ 4G 4B	.	2b/)	.	2b/	.	-na	-ku	-ły	.
4D/ 4G 4B	.	.	.	.	4r	.	.	.	.
*v	*v	*	*	*v	*v	*	*	*	*
=19	=19	=19	=19	=19	=19	=19	=19
4FF#/	(4.cc\	.	4.cc\	Chwy-	Po	Wę-	.
4D\ 4A 4c	.	.	.	.	.	.	.
!	!	!LO:HP:t=crescendo	!	!	!	!	!LO:HP:t=crescendo
.	8a\L	<	8a/	-ta	tej	-dru-	<
4D\ 4A 4c	8b\	.	8b\	kwiet-	by-	-je	.
.	8cc\J)	.	8cc\	-ne	-strej	po	.
=20	=20	=20	=20	=20	=20	=20	=20
4GG/	(8b\L	.	(8b\L	wień-	fa-	świe-	.
.	8dd\J	.	8dd\J)	.	.	.	.
4D\ 4G 4B	2g/)	.	2g/	-ce,	-li,	-cie,	.
4D\ 4G 4B	.	.	.	.	.	.	.
!!LO:PB:g=original
=21	=21	=21	=21	=21	=21	=21	=21
=9	=9	=9	=9	=9	=9	=9	=9
*	*	*	*	*v:1	*v:2	*v:3	*
!	!	!LO:DY:rj	!	!	!	!	!
2C\ 2G 2c	2e/ 2g 2ee	f	2ee\	Co	Pó-	A	.
4BB\ 4G 4B	4d/ 4g 4dd	.	4dd\	je	-ki	ja	.
=22	=22	=22	=22	=22	=22	=22	=22
8.E\L	8.c/L 8.g 8.cc	.	8.cc\	za-	się	mu	.
16D\Jk	16d/Jk 16g 16b	.	16b\	-pla-	ten	po-	.
4C\ 4A	4d/ 4f#	.	4f#/	-ta-	o-	-sy-	.
4BB\ 4G	4d/ 4g	.	4g/	-ły	-gień	-łam	.
=23	=23	=23	=23	=23	=23	=23	=23
4DD/	8.a/L	.	8.a/	Tych	Świę-	To	.
.	16b/Jk	.	16b/	pa-	-to-	ró-	.
4D\ 4A	4c/ 4f# 4cc	.	4cc\	-nie-	-jań-	-ża-	.
4D\ 4A	4c/ 4f# 4a	.	4a/	-nek	-ski	-ne	.
=24	=24	=24	=24	=24	=24	=24	=24
4GG/	(8dd\L	.	(8dd/L	rę-	pa-	kwie-	.
.	8f#\J)	.	8f#/J)	.	.	.	.
2D\ 2B	2d/ 2g	.	2g/	-ce.	-li.	-cie.	.
=:|!	=:|!	=:|!	=:|!	=:|!	=:|!	=:|!	=:|!
*-	*-	*-	*-	*-	*-	*-	*-
!!!system-decoration: p1{p2}
!!!RDF**kern: > = above
!!!RDF**kern: < = below
!!!ENC: Andrzej Gręziak
!!!END: 2025-03-06
!!!ENC: Marta Lawrence
!!!END: 2025-03-22
